;FLAVOR:UltiGCode
;TIME:5007      
;MATERIAL:6833      
;MATERIAL2:0         

;Layer count: 131
;LAYER:0
M107
G0 F6000 X85.734 Y100.484 Z0.300
G0 X87.228 Y99.401
;TYPE:SKIRT
G1 F900 X88.079 Y99.048 E0.09950
G1 X88.979 Y98.832 E0.19946
G1 X89.776 Y98.770 E0.28580
G1 X140.241 Y98.770 E5.73602
G1 X140.820 Y98.821 E5.79879
G1 X141.091 Y98.840 E5.82813
G1 X142.112 Y99.111 E5.94222
G1 X143.046 Y99.546 E6.05349
G1 X143.875 Y100.127 E6.16282
G1 X144.612 Y100.860 E6.27509
G1 X145.193 Y101.691 E6.38459
G1 X145.636 Y102.629 E6.49663
G1 X145.901 Y103.627 E6.60815
G1 X145.980 Y104.508 E6.70368
G1 X145.980 Y120.491 E8.42984
G1 X145.901 Y121.379 E8.52612
G1 X145.628 Y122.386 E8.63880
G1 X145.201 Y123.298 E8.74756
G1 X144.622 Y124.125 E8.85659
G1 X143.891 Y124.861 E8.96862
G1 X143.059 Y125.443 E9.07828
G1 X142.118 Y125.886 E9.19061
G1 X141.123 Y126.151 E9.30181
G1 X140.242 Y126.230 E9.39734
G1 X89.755 Y126.230 E14.84994
G1 X89.205 Y126.180 E14.90959
G1 X88.912 Y126.160 E14.94130
G1 X87.886 Y125.888 E15.05594
G1 X86.955 Y125.453 E15.16692
G1 X86.125 Y124.873 E15.27628
G1 X85.388 Y124.141 E15.38846
G1 X84.806 Y123.309 E15.49812
G1 X84.363 Y122.368 E15.61045
G1 X84.097 Y121.369 E15.72210
G1 X84.020 Y120.488 E15.81761
G1 X84.020 Y104.526 E17.54151
G1 X84.082 Y103.729 E17.62784
G1 X84.298 Y102.829 E17.72780
G1 X84.651 Y101.978 E17.82730
G1 X85.133 Y101.189 E17.92716
G1 X85.734 Y100.484 E18.02721
G1 X86.439 Y99.883 E18.12726
G1 X87.228 Y99.401 E18.22712
G10
G0 F6000 X89.916 Y102.490
;TYPE:WALL-INNER
G11
G1 F900 X140.075 Y102.490 E23.64429
G1 X140.474 Y102.525 E23.68755
G1 X140.842 Y102.623 E23.72867
G1 X141.178 Y102.779 E23.76868
G1 X141.478 Y102.989 E23.80823
G1 X141.753 Y103.263 E23.85016
G1 X141.964 Y103.565 E23.88995
G1 X142.127 Y103.911 E23.93125
G1 X142.224 Y104.275 E23.97194
G1 X142.260 Y104.676 E24.01542
G1 X142.260 Y120.323 E25.70530
G1 X142.224 Y120.725 E25.74889
G1 X142.123 Y121.100 E25.79083
G1 X141.969 Y121.429 E25.83006
G1 X141.760 Y121.728 E25.86946
G1 X141.484 Y122.004 E25.91161
G1 X141.184 Y122.215 E25.95123
G1 X140.841 Y122.377 E25.99219
G1 X140.473 Y122.474 E26.03329
G1 X140.074 Y122.510 E26.07656
G1 X89.927 Y122.510 E31.49244
G1 X89.525 Y122.474 E31.53603
G1 X89.160 Y122.377 E31.57682
G1 X88.822 Y122.219 E31.61711
G1 X88.520 Y122.008 E31.65690
G1 X88.245 Y121.734 E31.69883
G1 X88.034 Y121.434 E31.73844
G1 X87.872 Y121.091 E31.77940
G1 X87.775 Y120.724 E31.82040
G1 X87.740 Y120.325 E31.86366
G1 X87.740 Y104.666 E33.55483
G1 X87.768 Y104.313 E33.59307
G1 X87.847 Y103.984 E33.62962
G1 X87.978 Y103.668 E33.66656
G1 X88.151 Y103.383 E33.70257
G1 X88.373 Y103.123 E33.73949
G1 X88.633 Y102.901 E33.77641
G1 X88.918 Y102.728 E33.81242
G1 X89.234 Y102.597 E33.84937
G1 X89.563 Y102.518 E33.88591
G1 X89.916 Y102.490 E33.92415
G0 F6000 X89.901 Y102.130
;TYPE:WALL-OUTER
G1 F900 X140.095 Y102.130 E39.34510
G1 X140.538 Y102.169 E39.39313
G1 X140.962 Y102.282 E39.44052
G1 X141.362 Y102.468 E39.48817
G1 X141.707 Y102.710 E39.53368
G1 X142.029 Y103.030 E39.58271
G1 X142.276 Y103.383 E39.62924
G1 X142.468 Y103.790 E39.67784
G1 X142.581 Y104.214 E39.72523
G1 X142.620 Y104.650 E39.77250
G1 X142.620 Y120.349 E41.46800
G1 X142.581 Y120.783 E41.51506
G1 X142.461 Y121.227 E41.56473
G1 X142.281 Y121.611 E41.61053
G1 X142.039 Y121.957 E41.65613
G1 X141.715 Y122.283 E41.70577
G1 X141.371 Y122.524 E41.75113
G1 X140.959 Y122.718 E41.80032
G1 X140.535 Y122.831 E41.84771
G1 X140.095 Y122.870 E41.89541
G1 X89.905 Y122.870 E47.31593
G1 X89.461 Y122.830 E47.36408
G1 X89.037 Y122.717 E47.41147
G1 X88.643 Y122.533 E47.45843
G1 X88.288 Y122.285 E47.50520
G1 X87.966 Y121.965 E47.55423
G1 X87.725 Y121.621 E47.59959
G1 X87.531 Y121.209 E47.64877
G1 X87.419 Y120.785 E47.69614
G1 X87.380 Y120.349 E47.74341
G1 X87.380 Y104.650 E49.43891
G1 X87.411 Y104.258 E49.48137
G1 X87.504 Y103.870 E49.52446
G1 X87.653 Y103.510 E49.56654
G1 X87.862 Y103.167 E49.60992
G1 X88.118 Y102.868 E49.65243
G1 X88.417 Y102.612 E49.69494
G1 X88.760 Y102.403 E49.73832
G1 X89.120 Y102.254 E49.78040
G1 X89.508 Y102.161 E49.82349
G1 X89.901 Y102.130 E49.86607
G0 F6000 X90.141 Y102.615
;TYPE:FILL
G1 F900 X109.909 Y122.383 E52.88534
G0 F6000 X109.400 Y122.383
G1 F900 X89.654 Y102.636 E55.90132
G0 F6000 X89.238 Y102.730
G1 F900 X108.891 Y122.383 E58.90302
G0 F6000 X108.382 Y122.383
G1 F900 X88.891 Y102.891 E61.88006
G0 F6000 X88.591 Y103.101
G1 F900 X107.873 Y122.383 E64.82509
G0 F6000 X107.364 Y122.383
G1 F900 X88.338 Y103.357 E67.73103
G0 F6000 X88.130 Y103.658
G1 F900 X106.855 Y122.383 E70.59099
G0 F6000 X106.346 Y122.383
G1 F900 X87.971 Y104.009 E73.39743
G0 F6000 X87.884 Y104.431
G1 F900 X105.836 Y122.383 E76.13933
G0 F6000 X105.327 Y122.383
G1 F900 X87.865 Y104.921 E78.80638
G0 F6000 X87.865 Y105.430
G1 F900 X104.818 Y122.383 E81.39570
G0 F6000 X104.309 Y122.383
G1 F900 X87.865 Y105.939 E83.90728
G0 F6000 X87.865 Y106.448
G1 F900 X103.800 Y122.383 E86.34111
G0 F6000 X103.291 Y122.383
G1 F900 X87.865 Y106.957 E88.69720
G0 F6000 X87.865 Y107.466
G1 F900 X102.782 Y122.383 E90.97555
G0 F6000 X102.273 Y122.383
G1 F900 X87.865 Y107.975 E93.17616
G0 F6000 X87.865 Y108.485
G1 F900 X101.763 Y122.383 E95.29887
G0 F6000 X101.254 Y122.383
G1 F900 X87.865 Y108.994 E97.34384
G0 F6000 X87.865 Y109.503
G1 F900 X100.745 Y122.383 E99.31107
G0 F6000 X100.236 Y122.383
G1 F900 X87.865 Y110.012 E101.20055
G0 F6000 X87.865 Y110.521
G1 F900 X99.727 Y122.383 E103.01230
G0 F6000 X99.218 Y122.383
G1 F900 X87.865 Y111.030 E104.74630
G0 F6000 X87.865 Y111.539
G1 F900 X98.709 Y122.383 E106.40256
G0 F6000 X98.200 Y122.383
G1 F900 X87.865 Y112.048 E107.98107
G0 F6000 X87.865 Y112.557
G1 F900 X97.691 Y122.383 E109.48185
G0 F6000 X97.181 Y122.383
G1 F900 X87.865 Y113.067 E110.90473
G0 F6000 X87.865 Y113.576
G1 F900 X96.672 Y122.383 E112.24987
G0 F6000 X96.163 Y122.383
G1 F900 X87.865 Y114.085 E113.51726
G0 F6000 X87.865 Y114.594
G1 F900 X95.654 Y122.383 E114.70691
G0 F6000 X95.145 Y122.383
G1 F900 X87.865 Y115.103 E115.81883
G0 F6000 X87.865 Y115.612
G1 F900 X94.636 Y122.383 E116.85299
G0 F6000 X94.127 Y122.383
G1 F900 X87.865 Y116.121 E117.80942
G0 F6000 X87.865 Y116.630
G1 F900 X93.618 Y122.383 E118.68811
G0 F6000 X93.108 Y122.383
G1 F900 X87.865 Y117.140 E119.48890
G0 F6000 X87.865 Y117.649
G1 F900 X92.599 Y122.383 E120.21194
G0 F6000 X92.090 Y122.383
G1 F900 X87.865 Y118.158 E120.85725
G0 F6000 X87.865 Y118.667
G1 F900 X91.581 Y122.383 E121.42481
G0 F6000 X91.072 Y122.383
G1 F900 X87.865 Y119.176 E121.91463
G0 F6000 X87.865 Y119.685
G1 F900 X90.563 Y122.383 E122.32671
G0 F6000 X90.054 Y122.383
G1 F900 X87.865 Y120.194 E122.66105
G0 F6000 X87.913 Y120.751
G1 F900 X89.497 Y122.335 E122.90298
G0 F6000 X90.651 Y102.615
G1 F900 X110.418 Y122.383 E125.92217
G0 F6000 X110.928 Y122.383
G1 F900 X91.160 Y102.615 E128.94144
G0 F6000 X91.669 Y102.615
G1 F900 X111.437 Y122.383 E131.96071
G0 F6000 X111.946 Y122.383
G1 F900 X92.178 Y102.615 E134.97997
G0 F6000 X92.687 Y102.615
G1 F900 X112.455 Y122.383 E137.99924
G0 F6000 X112.964 Y122.383
G1 F900 X93.196 Y102.615 E141.01851
G0 F6000 X93.705 Y102.615
G1 F900 X113.473 Y122.383 E144.03777
G0 F6000 X113.982 Y122.383
G1 F900 X94.214 Y102.615 E147.05704
G0 F6000 X94.724 Y102.615
G1 F900 X114.491 Y122.383 E150.07623
G0 F6000 X115.001 Y122.383
G1 F900 X95.233 Y102.615 E153.09550
G0 F6000 X95.742 Y102.615
G1 F900 X115.510 Y122.383 E156.11477
G0 F6000 X116.019 Y122.383
G1 F900 X96.251 Y102.615 E159.13403
G0 F6000 X96.760 Y102.615
G1 F900 X116.528 Y122.383 E162.15330
G0 F6000 X117.037 Y122.383
G1 F900 X97.269 Y102.615 E165.17257
G0 F6000 X97.778 Y102.615
G1 F900 X117.546 Y122.383 E168.19183
G0 F6000 X118.055 Y122.383
G1 F900 X98.287 Y102.615 E171.21110
G0 F6000 X98.796 Y102.615
G1 F900 X118.564 Y122.383 E174.23037
G0 F6000 X119.073 Y122.383
G1 F900 X99.306 Y102.615 E177.24956
G0 F6000 X99.815 Y102.615
G1 F900 X119.583 Y122.383 E180.26882
G0 F6000 X120.092 Y122.383
G1 F900 X100.324 Y102.615 E183.28809
G0 F6000 X100.833 Y102.615
G1 F900 X120.601 Y122.383 E186.30736
G0 F6000 X121.110 Y122.383
G1 F900 X101.342 Y102.615 E189.32662
G0 F6000 X101.851 Y102.615
G1 F900 X121.619 Y122.383 E192.34589
G0 F6000 X122.128 Y122.383
G1 F900 X102.360 Y102.615 E195.36516
G0 F6000 X102.869 Y102.615
G1 F900 X122.637 Y122.383 E198.38442
G0 F6000 X123.146 Y122.383
G1 F900 X103.379 Y102.615 E201.40361
G0 F6000 X103.888 Y102.615
G1 F900 X123.656 Y122.383 E204.42288
G0 F6000 X124.165 Y122.383
G1 F900 X104.397 Y102.615 E207.44215
G0 F6000 X104.906 Y102.615
G1 F900 X124.674 Y122.383 E210.46141
G0 F6000 X125.183 Y122.383
G1 F900 X105.415 Y102.615 E213.48068
G0 F6000 X105.924 Y102.615
G1 F900 X125.692 Y122.383 E216.49995
G0 F6000 X126.201 Y122.383
G1 F900 X106.433 Y102.615 E219.51921
G0 F6000 X106.942 Y102.615
G1 F900 X126.710 Y122.383 E222.53848
G0 F6000 X127.219 Y122.383
G1 F900 X107.451 Y102.615 E225.55775
G0 F6000 X107.961 Y102.615
G1 F900 X127.728 Y122.383 E228.57694
G0 F6000 X128.238 Y122.383
G1 F900 X108.470 Y102.615 E231.59621
G0 F6000 X108.979 Y102.615
G1 F900 X128.747 Y122.383 E234.61547
G0 F6000 X129.256 Y122.383
G1 F900 X109.488 Y102.615 E237.63474
G0 F6000 X109.997 Y102.615
G1 F900 X129.765 Y122.383 E240.65401
G0 F6000 X130.274 Y122.383
G1 F900 X110.506 Y102.615 E243.67327
G0 F6000 X111.015 Y102.615
G1 F900 X130.783 Y122.383 E246.69254
G0 F6000 X131.292 Y122.383
G1 F900 X111.524 Y102.615 E249.71181
G0 F6000 X112.033 Y102.615
G1 F900 X131.801 Y122.383 E252.73107
G0 F6000 X132.310 Y122.383
G1 F900 X112.543 Y102.615 E255.75026
G0 F6000 X113.052 Y102.615
G1 F900 X132.820 Y122.383 E258.76953
G0 F6000 X133.329 Y122.383
G1 F900 X113.561 Y102.615 E261.78880
G0 F6000 X114.070 Y102.615
G1 F900 X133.838 Y122.383 E264.80806
G0 F6000 X134.347 Y122.383
G1 F900 X114.579 Y102.615 E267.82733
G0 F6000 X115.089 Y102.616
G1 F900 X134.856 Y122.383 E270.84644
G0 F6000 X135.365 Y122.383
G1 F900 X115.598 Y102.616 E273.86556
G0 F6000 X116.107 Y102.616
G1 F900 X135.874 Y122.383 E276.88467
G0 F6000 X136.383 Y122.383
G1 F900 X116.616 Y102.616 E279.90379
G0 F6000 X117.125 Y102.616
G1 F900 X136.893 Y122.383 E282.92298
G0 F6000 X137.402 Y122.383
G1 F900 X117.634 Y102.616 E285.94217
G0 F6000 X118.144 Y102.616
G1 F900 X137.911 Y122.383 E288.96128
G0 F6000 X138.420 Y122.383
G1 F900 X118.653 Y102.616 E291.98039
G0 F6000 X119.162 Y102.616
G1 F900 X138.929 Y122.383 E294.99951
G0 F6000 X139.438 Y122.383
G1 F900 X119.671 Y102.616 E298.01862
G0 F6000 X120.180 Y102.616
G1 F900 X139.947 Y122.383 E301.03774
G0 F6000 X140.425 Y122.351
G1 F900 X120.689 Y102.616 E304.05204
G0 F6000 X121.198 Y102.616
G1 F900 X140.826 Y122.243 E307.04985
G0 F6000 X141.164 Y122.072
G1 F900 X121.707 Y102.616 E310.02154
G0 F6000 X122.217 Y102.616
G1 F900 X141.455 Y121.854 E312.95985
G0 F6000 X141.701 Y121.591
G1 F900 X122.726 Y102.616 E315.85800
G0 F6000 X123.235 Y102.616
G1 F900 X141.899 Y121.280 E318.70865
G0 F6000 X142.041 Y120.913
G1 F900 X123.744 Y102.616 E321.50324
G0 F6000 X124.253 Y102.616
G1 F900 X142.119 Y120.481 E324.23193
G0 F6000 X142.133 Y119.986
G1 F900 X124.762 Y102.616 E326.88502
G0 F6000 X125.271 Y102.616
G1 F900 X142.133 Y119.477 E329.46036
G0 F6000 X142.133 Y118.968
G1 F900 X125.780 Y102.616 E331.95796
G0 F6000 X126.289 Y102.616
G1 F900 X142.133 Y118.459 E334.37782
G0 F6000 X142.133 Y117.950
G1 F900 X126.799 Y102.616 E336.71986
G0 F6000 X127.308 Y102.616
G1 F900 X142.133 Y117.441 E338.98415
G0 F6000 X142.133 Y116.932
G1 F900 X127.817 Y102.616 E341.17071
G0 F6000 X128.326 Y102.616
G1 F900 X142.133 Y116.423 E343.27952
G0 F6000 X142.133 Y115.913
G1 F900 X128.835 Y102.616 E345.31052
G0 F6000 X129.344 Y102.616
G1 F900 X142.133 Y115.404 E347.26377
G0 F6000 X142.133 Y114.895
G1 F900 X129.853 Y102.616 E349.13928
G0 F6000 X130.362 Y102.616
G1 F900 X142.133 Y114.386 E350.93705
G0 F6000 X142.133 Y113.877
G1 F900 X130.872 Y102.616 E352.65700
G0 F6000 X131.381 Y102.616
G1 F900 X142.133 Y113.368 E354.29920
G0 F6000 X142.133 Y112.859
G1 F900 X131.890 Y102.616 E355.86367
G0 F6000 X132.399 Y102.616
G1 F900 X142.133 Y112.350 E357.35039
G0 F6000 X142.133 Y111.840
G1 F900 X132.908 Y102.616 E358.75930
G0 F6000 X133.417 Y102.616
G1 F900 X142.133 Y111.331 E360.09046
G0 F6000 X142.133 Y110.822
G1 F900 X133.926 Y102.616 E361.34388
G0 F6000 X134.435 Y102.616
G1 F900 X142.133 Y110.313 E362.51956
G0 F6000 X142.133 Y109.804
G1 F900 X134.944 Y102.616 E363.61749
G0 F6000 X135.454 Y102.616
G1 F900 X142.133 Y109.295 E364.63761
G0 F6000 X142.133 Y108.786
G1 F900 X135.963 Y102.616 E365.57999
G0 F6000 X136.472 Y102.616
G1 F900 X142.133 Y108.277 E366.44462
G0 F6000 X142.133 Y107.768
G1 F900 X136.981 Y102.616 E367.23151
G0 F6000 X137.490 Y102.616
G1 F900 X142.133 Y107.258 E367.94058
G0 F6000 X142.133 Y106.749
G1 F900 X137.999 Y102.616 E368.57191
G0 F6000 X138.508 Y102.616
G1 F900 X142.133 Y106.240 E369.12550
G0 F6000 X142.133 Y105.731
G1 F900 X139.017 Y102.616 E369.60135
G0 F6000 X139.527 Y102.616
G1 F900 X142.133 Y105.222 E369.99938
G0 F6000 X142.133 Y104.713
G1 F900 X140.036 Y102.616 E370.31966
G0 F6000 X140.625 Y102.696
G1 F900 X142.053 Y104.124 E370.53777
;LAYER:1
M106 S127
G0 F6000 X142.200 Y104.682 Z0.400
;TYPE:WALL-INNER
G1 F1380 X142.200 Y120.317 E371.16317
G1 X142.164 Y120.715 E371.17915
G1 X142.064 Y121.086 E371.19452
G1 X141.918 Y121.397 E371.20826
G1 X141.705 Y121.700 E371.22308
G1 X141.450 Y121.955 E371.23750
G1 X141.148 Y122.167 E371.25226
G1 X140.818 Y122.320 E371.26681
G1 X140.465 Y122.414 E371.28142
G1 X140.068 Y122.450 E371.29737
G1 X89.933 Y122.450 E373.30277
G1 X89.532 Y122.414 E373.31887
G1 X89.183 Y122.321 E373.33332
G1 X88.851 Y122.166 E373.34798
G1 X88.548 Y121.954 E373.36277
G1 X88.294 Y121.700 E373.37714
G1 X88.080 Y121.393 E373.39211
G1 X87.929 Y121.068 E373.40644
G1 X87.835 Y120.715 E373.42105
G1 X87.800 Y120.320 E373.43692
G1 X87.800 Y104.671 E374.06288
G1 X87.827 Y104.319 E374.07700
G1 X87.904 Y104.003 E374.09001
G1 X88.030 Y103.698 E374.10321
G1 X88.203 Y103.415 E374.11647
G1 X88.416 Y103.166 E374.12958
G1 X88.665 Y102.953 E374.14269
G1 X88.948 Y102.780 E374.15596
G1 X89.253 Y102.654 E374.16916
G1 X89.569 Y102.577 E374.18217
G1 X89.921 Y102.550 E374.19629
G1 X140.071 Y102.550 E376.20229
G1 X140.465 Y102.585 E376.21811
G1 X140.818 Y102.679 E376.23272
G1 X141.148 Y102.832 E376.24727
G1 X141.450 Y103.044 E376.26203
G1 X141.704 Y103.298 E376.27640
G1 X141.916 Y103.601 E376.29119
G1 X142.071 Y103.933 E376.30585
G1 X142.164 Y104.284 E376.32037
G1 X142.200 Y104.682 E376.33636
G0 F6000 X142.600 Y104.657
;TYPE:WALL-OUTER
G1 F1380 X142.600 Y120.342 E376.96376
G1 X142.561 Y120.782 E376.98142
G1 X142.441 Y121.224 E376.99974
G1 X142.265 Y121.598 E377.01628
G1 X142.011 Y121.960 E377.03397
G1 X141.710 Y122.261 E377.05099
G1 X141.346 Y122.516 E377.06877
G1 X140.955 Y122.698 E377.08602
G1 X140.534 Y122.810 E377.10345
G1 X140.093 Y122.850 E377.12116
G1 X89.907 Y122.850 E379.12860
G1 X89.464 Y122.810 E379.14639
G1 X89.046 Y122.699 E379.16369
G1 X88.652 Y122.515 E379.18109
G1 X88.289 Y122.261 E379.19881
G1 X87.988 Y121.960 E379.21584
G1 X87.731 Y121.592 E379.23379
G1 X87.551 Y121.205 E379.25086
G1 X87.439 Y120.784 E379.26829
G1 X87.400 Y120.349 E379.28576
G1 X87.400 Y104.650 E379.91372
G1 X87.431 Y104.258 E379.92945
G1 X87.521 Y103.882 E379.94491
G1 X87.674 Y103.514 E379.96085
G1 X87.878 Y103.179 E379.97654
G1 X88.132 Y102.882 E379.99217
G1 X88.429 Y102.628 E380.00781
G1 X88.764 Y102.424 E380.02350
G1 X89.132 Y102.271 E380.03944
G1 X89.508 Y102.181 E380.05490
G1 X89.903 Y102.150 E380.07075
G1 X140.094 Y102.150 E382.07839
G1 X140.534 Y102.189 E382.09606
G1 X140.955 Y102.301 E382.11349
G1 X141.346 Y102.483 E382.13074
G1 X141.710 Y102.738 E382.14851
