;FLAVOR:UltiGCode
;TIME:2868      
;MATERIAL:4443      
;MATERIAL2:0         

;Layer count: 131
;LAYER:0
M107
G0 F6000 X85.734 Y100.484 Z0.300
G0 X87.228 Y99.401
;TYPE:SKIRT
G1 F900 X88.079 Y99.048 E0.09950
G1 X88.979 Y98.832 E0.19946
G1 X89.776 Y98.770 E0.28580
G1 X140.241 Y98.770 E5.73602
G1 X140.820 Y98.821 E5.79879
G1 X141.091 Y98.840 E5.82813
G1 X142.112 Y99.111 E5.94222
G1 X143.046 Y99.546 E6.05349
G1 X143.875 Y100.127 E6.16282
G1 X144.612 Y100.860 E6.27509
G1 X145.193 Y101.691 E6.38459
G1 X145.636 Y102.629 E6.49663
G1 X145.901 Y103.627 E6.60815
G1 X145.980 Y104.508 E6.70368
G1 X145.980 Y120.491 E8.42984
G1 X145.901 Y121.379 E8.52612
G1 X145.628 Y122.386 E8.63880
G1 X145.201 Y123.298 E8.74756
G1 X144.622 Y124.125 E8.85659
G1 X143.891 Y124.861 E8.96862
G1 X143.059 Y125.443 E9.07828
G1 X142.118 Y125.886 E9.19061
G1 X141.123 Y126.151 E9.30181
G1 X140.242 Y126.230 E9.39734
G1 X89.755 Y126.230 E14.84994
G1 X89.205 Y126.180 E14.90959
G1 X88.912 Y126.160 E14.94130
G1 X87.886 Y125.888 E15.05594
G1 X86.955 Y125.453 E15.16692
G1 X86.125 Y124.873 E15.27628
G1 X85.388 Y124.141 E15.38846
G1 X84.806 Y123.309 E15.49812
G1 X84.363 Y122.368 E15.61045
G1 X84.097 Y121.369 E15.72210
G1 X84.020 Y120.488 E15.81761
G1 X84.020 Y104.526 E17.54151
G1 X84.082 Y103.729 E17.62784
G1 X84.298 Y102.829 E17.72780
G1 X84.651 Y101.978 E17.82730
G1 X85.133 Y101.189 E17.92716
G1 X85.734 Y100.484 E18.02721
G1 X86.439 Y99.883 E18.12726
G1 X87.228 Y99.401 E18.22712
G10
G1 Z0.375
G0 F6000 X89.916 Y102.490
;TYPE:WALL-INNER
G1 Z0.300
G11
G1 F900 X140.075 Y102.490 E23.64429
G1 X140.474 Y102.525 E23.68755
G1 X140.842 Y102.623 E23.72867
G1 X141.178 Y102.779 E23.76868
G1 X141.478 Y102.989 E23.80823
G1 X141.753 Y103.263 E23.85016
G1 X141.964 Y103.565 E23.88995
G1 X142.127 Y103.911 E23.93125
G1 X142.224 Y104.275 E23.97194
G1 X142.260 Y104.676 E24.01542
G1 X142.260 Y120.323 E25.70530
G1 X142.224 Y120.725 E25.74889
G1 X142.123 Y121.100 E25.79083
G1 X141.969 Y121.429 E25.83006
G1 X141.760 Y121.728 E25.86946
G1 X141.484 Y122.004 E25.91161
G1 X141.184 Y122.215 E25.95123
G1 X140.841 Y122.377 E25.99219
G1 X140.473 Y122.474 E26.03329
G1 X140.074 Y122.510 E26.07656
G1 X89.927 Y122.510 E31.49244
G1 X89.525 Y122.474 E31.53603
G1 X89.160 Y122.377 E31.57682
G1 X88.822 Y122.219 E31.61711
G1 X88.520 Y122.008 E31.65690
G1 X88.245 Y121.734 E31.69883
G1 X88.034 Y121.434 E31.73844
G1 X87.872 Y121.091 E31.77940
G1 X87.775 Y120.724 E31.82040
G1 X87.740 Y120.325 E31.86366
G1 X87.740 Y104.666 E33.55483
G1 X87.768 Y104.313 E33.59307
G1 X87.847 Y103.984 E33.62962
G1 X87.978 Y103.668 E33.66656
G1 X88.151 Y103.383 E33.70257
G1 X88.373 Y103.123 E33.73949
G1 X88.633 Y102.901 E33.77641
G1 X88.918 Y102.728 E33.81242
G1 X89.234 Y102.597 E33.84937
G1 X89.563 Y102.518 E33.88591
G1 X89.916 Y102.490 E33.92415
G0 F6000 X89.901 Y102.130
;TYPE:WALL-OUTER
G1 F900 X140.095 Y102.130 E39.34510
G1 X140.538 Y102.169 E39.39313
G1 X140.962 Y102.282 E39.44052
G1 X141.362 Y102.468 E39.48817
G1 X141.707 Y102.710 E39.53368
G1 X142.029 Y103.030 E39.58271
G1 X142.276 Y103.383 E39.62924
G1 X142.468 Y103.790 E39.67784
G1 X142.581 Y104.214 E39.72523
G1 X142.620 Y104.650 E39.77250
G1 X142.620 Y120.349 E41.46800
G1 X142.581 Y120.783 E41.51506
G1 X142.461 Y121.227 E41.56473
G1 X142.281 Y121.611 E41.61053
G1 X142.039 Y121.957 E41.65613
G1 X141.715 Y122.283 E41.70577
G1 X141.371 Y122.524 E41.75113
G1 X140.959 Y122.718 E41.80032
G1 X140.535 Y122.831 E41.84771
G1 X140.095 Y122.870 E41.89541
G1 X89.905 Y122.870 E47.31593
G1 X89.461 Y122.830 E47.36408
G1 X89.037 Y122.717 E47.41147
G1 X88.643 Y122.533 E47.45843
G1 X88.288 Y122.285 E47.50520
G1 X87.966 Y121.965 E47.55423
G1 X87.725 Y121.621 E47.59959
G1 X87.531 Y121.209 E47.64877
G1 X87.419 Y120.785 E47.69614
G1 X87.380 Y120.349 E47.74341
G1 X87.380 Y104.650 E49.43891
G1 X87.411 Y104.258 E49.48137
G1 X87.504 Y103.870 E49.52446
G1 X87.653 Y103.510 E49.56654
G1 X87.862 Y103.167 E49.60992
G1 X88.118 Y102.868 E49.65243
G1 X88.417 Y102.612 E49.69494
G1 X88.760 Y102.403 E49.73832
G1 X89.120 Y102.254 E49.78040
G1 X89.508 Y102.161 E49.82349
G1 X89.901 Y102.130 E49.86607
G0 F6000 X90.124 Y102.597
;TYPE:FILL
G1 F900 X109.927 Y122.400 E52.89068
G0 F6000 X109.418 Y122.400
G1 F900 X89.637 Y102.620 E55.91186
G0 F6000 X89.225 Y102.717
G1 F900 X108.909 Y122.400 E58.91822
G0 F6000 X108.400 Y122.400
G1 F900 X88.877 Y102.878 E61.89999
G0 F6000 X88.579 Y103.089
G1 F900 X107.891 Y122.400 E64.84953
G0 F6000 X107.381 Y122.400
G1 F900 X88.325 Y103.344 E67.76005
G0 F6000 X88.116 Y103.644
G1 F900 X106.872 Y122.400 E70.62475
G0 F6000 X106.363 Y122.400
G1 F900 X87.958 Y103.995 E73.43584
G0 F6000 X87.867 Y104.414
G1 F900 X105.854 Y122.400 E76.18301
G0 F6000 X105.345 Y122.400
G1 F900 X87.847 Y104.902 E78.85557
G0 F6000 X87.847 Y105.411
G1 F900 X104.836 Y122.400 E81.45038
G0 F6000 X104.327 Y122.400
G1 F900 X87.847 Y105.921 E83.96738
G0 F6000 X87.847 Y106.430
G1 F900 X103.818 Y122.400 E86.40663
G0 F6000 X103.309 Y122.400
G1 F900 X87.847 Y106.939 E88.76815
G0 F6000 X87.847 Y107.448
G1 F900 X102.799 Y122.400 E91.05184
G0 F6000 X102.290 Y122.400
G1 F900 X87.847 Y107.957 E93.25779
G0 F6000 X87.847 Y108.466
G1 F900 X101.781 Y122.400 E95.38601
G0 F6000 X101.272 Y122.400
G1 F900 X87.847 Y108.975 E97.43647
G0 F6000 X87.847 Y109.484
G1 F900 X100.763 Y122.400 E99.40920
G0 F6000 X100.254 Y122.400
G1 F900 X87.847 Y109.993 E101.30418
G0 F6000 X87.847 Y110.503
G1 F900 X99.745 Y122.400 E103.12135
G0 F6000 X99.236 Y122.400
G1 F900 X87.847 Y111.012 E104.86077
G0 F6000 X87.847 Y111.521
G1 F900 X98.726 Y122.400 E106.52238
G0 F6000 X98.217 Y122.400
G1 F900 X87.847 Y112.030 E108.10624
G0 F6000 X87.847 Y112.539
G1 F900 X97.708 Y122.400 E109.61236
G0 F6000 X97.199 Y122.400
G1 F900 X87.847 Y113.048 E111.04074
G0 F6000 X87.847 Y113.557
G1 F900 X96.690 Y122.400 E112.39137
G0 F6000 X96.181 Y122.400
G1 F900 X87.847 Y114.066 E113.66427
G0 F6000 X87.847 Y114.576
G1 F900 X95.672 Y122.400 E114.85934
G0 F6000 X95.163 Y122.400
G1 F900 X87.847 Y115.085 E115.97668
G0 F6000 X87.847 Y115.594
G1 F900 X94.654 Y122.400 E117.01627
G0 F6000 X94.144 Y122.400
G1 F900 X87.847 Y116.103 E117.97804
G0 F6000 X87.847 Y116.612
G1 F900 X93.635 Y122.400 E118.86207
G0 F6000 X93.126 Y122.400
G1 F900 X87.847 Y117.121 E119.66836
G0 F6000 X87.847 Y117.630
G1 F900 X92.617 Y122.400 E120.39691
G0 F6000 X92.108 Y122.400
G1 F900 X87.847 Y118.139 E121.04771
G0 F6000 X87.847 Y118.648
G1 F900 X91.599 Y122.400 E121.62077
G0 F6000 X91.090 Y122.400
G1 F900 X87.847 Y119.158 E122.11602
G0 F6000 X87.847 Y119.667
G1 F900 X90.581 Y122.400 E122.53352
G0 F6000 X90.071 Y122.400
G1 F900 X87.847 Y120.176 E122.87320
G0 F6000 X87.888 Y120.726
G1 F900 X89.523 Y122.361 E123.12292
G0 F6000 X90.633 Y102.597
G1 F900 X110.436 Y122.400 E126.14753
G0 F6000 X110.945 Y122.400
G1 F900 X91.142 Y102.597 E129.17215
G0 F6000 X91.651 Y102.597
G1 F900 X111.454 Y122.400 E132.19676
G0 F6000 X111.963 Y122.400
G1 F900 X92.160 Y102.597 E135.22137
G0 F6000 X92.669 Y102.597
G1 F900 X112.473 Y122.400 E138.24606
G0 F6000 X112.982 Y122.400
G1 F900 X93.178 Y102.597 E141.27075
G0 F6000 X93.688 Y102.597
G1 F900 X113.491 Y122.400 E144.29536
G0 F6000 X114.000 Y122.400
G1 F900 X94.197 Y102.597 E147.31997
G0 F6000 X94.706 Y102.597
G1 F900 X114.509 Y122.400 E150.34459
G0 F6000 X115.019 Y122.401
G1 F900 X95.215 Y102.597 E153.36935
G0 F6000 X95.724 Y102.597
G1 F900 X115.528 Y122.401 E156.39412
G0 F6000 X116.037 Y122.401
G1 F900 X96.233 Y102.597 E159.41888
G0 F6000 X96.742 Y102.597
G1 F900 X116.546 Y122.401 E162.44365
G0 F6000 X117.055 Y122.401
G1 F900 X97.251 Y102.597 E165.46841
G0 F6000 X97.761 Y102.597
G1 F900 X117.564 Y122.401 E168.49310
G0 F6000 X118.074 Y122.401
G1 F900 X98.270 Y102.597 E171.51787
G0 F6000 X98.779 Y102.597
G1 F900 X118.583 Y122.401 E174.54263
G0 F6000 X119.092 Y122.401
G1 F900 X99.288 Y102.597 E177.56740
G0 F6000 X99.797 Y102.597
G1 F900 X119.601 Y122.401 E180.59216
G0 F6000 X120.110 Y122.401
G1 F900 X100.306 Y102.597 E183.61693
G0 F6000 X100.815 Y102.597
G1 F900 X120.619 Y122.401 E186.64169
G0 F6000 X121.128 Y122.401
G1 F900 X101.324 Y102.597 E189.66646
G0 F6000 X101.833 Y102.597
G1 F900 X121.637 Y122.401 E192.69122
G0 F6000 X122.147 Y122.401
G1 F900 X102.343 Y102.597 E195.71599
G0 F6000 X102.852 Y102.597
G1 F900 X122.656 Y122.401 E198.74075
G0 F6000 X123.165 Y122.401
G1 F900 X103.361 Y102.597 E201.76552
G0 F6000 X103.870 Y102.597
G1 F900 X123.674 Y122.401 E204.79028
G0 F6000 X124.183 Y122.401
G1 F900 X104.379 Y102.597 E207.81505
G0 F6000 X104.888 Y102.597
G1 F900 X124.692 Y122.401 E210.83982
G0 F6000 X125.201 Y122.401
G1 F900 X105.397 Y102.597 E213.86458
G0 F6000 X105.906 Y102.597
G1 F900 X125.710 Y122.401 E216.88935
G0 F6000 X126.219 Y122.401
G1 F900 X106.416 Y102.597 E219.91403
G0 F6000 X106.925 Y102.597
G1 F900 X126.729 Y122.401 E222.93880
G0 F6000 X127.238 Y122.401
G1 F900 X107.434 Y102.597 E225.96357
G0 F6000 X107.943 Y102.597
G1 F900 X127.747 Y122.401 E228.98833
G0 F6000 X128.256 Y122.401
G1 F900 X108.452 Y102.597 E232.01310
G0 F6000 X108.961 Y102.597
G1 F900 X128.765 Y122.401 E235.03786
G0 F6000 X129.274 Y122.401
G1 F900 X109.470 Y102.597 E238.06263
G0 F6000 X109.979 Y102.597
G1 F900 X129.783 Y122.401 E241.08739
G0 F6000 X130.292 Y122.401
G1 F900 X110.488 Y102.597 E244.11216
G0 F6000 X110.998 Y102.597
G1 F900 X130.802 Y122.401 E247.13692
G0 F6000 X131.311 Y122.401
G1 F900 X111.507 Y102.597 E250.16169
G0 F6000 X112.016 Y102.597
G1 F900 X131.820 Y122.401 E253.18645
G0 F6000 X132.329 Y122.401
G1 F900 X112.525 Y102.597 E256.21122
G0 F6000 X113.034 Y102.597
G1 F900 X132.838 Y122.401 E259.23598
G0 F6000 X133.347 Y122.401
G1 F900 X113.543 Y102.597 E262.26075
G0 F6000 X114.052 Y102.597
G1 F900 X133.856 Y122.401 E265.28551
G0 F6000 X134.365 Y122.401
G1 F900 X114.561 Y102.597 E268.31028
G0 F6000 X115.071 Y102.598
G1 F900 X134.874 Y122.401 E271.33489
G0 F6000 X135.384 Y122.401
G1 F900 X115.580 Y102.598 E274.35958
G0 F6000 X116.089 Y102.598
G1 F900 X135.893 Y122.401 E277.38427
G0 F6000 X136.402 Y122.401
G1 F900 X116.599 Y102.598 E280.40888
G0 F6000 X117.108 Y102.598
G1 F900 X136.911 Y122.401 E283.43349
G0 F6000 X137.420 Y122.401
G1 F900 X117.617 Y102.598 E286.45811
G0 F6000 X118.126 Y102.598
G1 F900 X137.929 Y122.401 E289.48272
G0 F6000 X138.438 Y122.401
G1 F900 X118.635 Y102.598 E292.50733
G0 F6000 X119.144 Y102.598
G1 F900 X138.947 Y122.401 E295.53194
G0 F6000 X139.457 Y122.401
G1 F900 X119.653 Y102.598 E298.55663
G0 F6000 X120.162 Y102.598
G1 F900 X139.966 Y122.401 E301.58132
G0 F6000 X140.442 Y122.368
G1 F900 X120.672 Y102.598 E304.60089
G0 F6000 X121.181 Y102.598
G1 F900 X140.840 Y122.257 E307.60351
G0 F6000 X141.177 Y122.085
G1 F900 X121.690 Y102.598 E310.57986
G0 F6000 X122.199 Y102.598
G1 F900 X141.468 Y121.867 E313.52291
G0 F6000 X141.714 Y121.603
G1 F900 X122.708 Y102.598 E316.42572
G0 F6000 X123.217 Y102.598
G1 F900 X141.913 Y121.294 E319.28125
G0 F6000 X142.057 Y120.928
G1 F900 X123.726 Y102.598 E322.08096
G0 F6000 X124.235 Y102.598
G1 F900 X142.136 Y120.498 E324.81500
G0 F6000 X142.151 Y120.004
G1 F900 X124.744 Y102.598 E327.47358
G0 F6000 X125.254 Y102.598
G1 F900 X142.151 Y119.495 E330.05434
G0 F6000 X142.151 Y118.986
G1 F900 X125.763 Y102.598 E332.55737
G0 F6000 X126.272 Y102.598
G1 F900 X142.151 Y118.477 E334.98265
G0 F6000 X142.151 Y117.968
G1 F900 X126.781 Y102.598 E337.33018
G0 F6000 X127.290 Y102.598
G1 F900 X142.151 Y117.458 E339.59990
G0 F6000 X142.151 Y116.949
G1 F900 X127.799 Y102.598 E341.79188
G0 F6000 X128.308 Y102.598
G1 F900 X142.151 Y116.440 E343.90612
G0 F6000 X142.151 Y115.931
G1 F900 X128.817 Y102.598 E345.94261
G0 F6000 X129.327 Y102.598
G1 F900 X142.151 Y115.422 E347.90128
G0 F6000 X142.151 Y114.913
G1 F900 X129.836 Y102.598 E349.78222
G0 F6000 X130.345 Y102.598
G1 F900 X142.151 Y114.404 E351.58541
G0 F6000 X142.151 Y113.895
G1 F900 X130.854 Y102.598 E353.31085
G0 F6000 X131.363 Y102.598
G1 F900 X142.151 Y113.385 E354.95848
G0 F6000 X142.151 Y112.876
G1 F900 X131.872 Y102.598 E356.52837
G0 F6000 X132.381 Y102.598
G1 F900 X142.151 Y112.367 E358.02052
G0 F6000 X142.151 Y111.858
G1 F900 X132.890 Y102.598 E359.43492
G0 F6000 X133.399 Y102.598
G1 F900 X142.151 Y111.349 E360.77158
G0 F6000 X142.151 Y110.840
G1 F900 X133.909 Y102.598 E362.03042
G0 F6000 X134.418 Y102.598
G1 F900 X142.151 Y110.331 E363.21152
G0 F6000 X142.151 Y109.822
G1 F900 X134.927 Y102.598 E364.31488
G0 F6000 X135.436 Y102.598
G1 F900 X142.151 Y109.313 E365.34050
G0 F6000 X142.151 Y108.803
G1 F900 X135.945 Y102.598 E366.28829
G0 F6000 X136.454 Y102.598
G1 F900 X142.151 Y108.294 E367.15835
G0 F6000 X142.151 Y107.785
G1 F900 X136.963 Y102.598 E367.95066
G0 F6000 X137.472 Y102.598
G1 F900 X142.151 Y107.276 E368.66523
G0 F6000 X142.151 Y106.767
G1 F900 X137.981 Y102.598 E369.30206
G0 F6000 X138.491 Y102.598
G1 F900 X142.151 Y106.258 E369.86107
G0 F6000 X142.151 Y105.749
G1 F900 X139.000 Y102.598 E370.34234
G0 F6000 X139.509 Y102.598
G1 F900 X142.151 Y105.240 E370.74587
G0 F6000 X142.151 Y104.730
G1 F900 X140.018 Y102.598 E371.07158
G0 F6000 X140.600 Y102.671
G1 F900 X142.078 Y104.149 E371.29732
;LAYER:1
M106 S127
G0 F6000 X142.200 Y104.682 Z0.400
;TYPE:WALL-INNER
G1 F1380 X142.200 Y120.317 E371.92272
G1 X142.164 Y120.715 E371.93870
G1 X142.064 Y121.086 E371.95407
G1 X141.918 Y121.397 E371.96781
G1 X141.705 Y121.700 E371.98263
G1 X141.450 Y121.955 E371.99705
G1 X141.148 Y122.167 E372.01181
G1 X140.818 Y122.320 E372.02636
G1 X140.465 Y122.414 E372.04098
G1 X140.068 Y122.450 E372.05692
G1 X89.933 Y122.450 E374.06232
G1 X89.532 Y122.414 E374.07843
G1 X89.183 Y122.321 E374.09287
G1 X88.851 Y122.166 E374.10753
G1 X88.548 Y121.954 E374.12232
G1 X88.294 Y121.700 E374.13669
G1 X88.080 Y121.393 E374.15166
G1 X87.929 Y121.068 E374.16599
G1 X87.835 Y120.715 E374.18060
G1 X87.800 Y120.320 E374.19647
G1 X87.800 Y104.671 E374.82243
G1 X87.827 Y104.319 E374.83655
G1 X87.904 Y104.003 E374.84956
G1 X88.030 Y103.698 E374.86276
G1 X88.203 Y103.415 E374.87603
G1 X88.416 Y103.166 E374.88913
G1 X88.665 Y102.953 E374.90224
G1 X88.948 Y102.780 E374.91551
G1 X89.253 Y102.654 E374.92871
G1 X89.569 Y102.577 E374.94172
G1 X89.921 Y102.550 E374.95584
G1 X140.071 Y102.550 E376.96184
G1 X140.465 Y102.585 E376.97766
G1 X140.818 Y102.679 E376.99227
G1 X141.148 Y102.832 E377.00682
G1 X141.450 Y103.044 E377.02158
G1 X141.704 Y103.298 E377.03595
G1 X141.916 Y103.601 E377.05074
G1 X142.071 Y103.933 E377.06540
G1 X142.164 Y104.284 E377.07992
G1 X142.200 Y104.682 E377.09591
G0 F6000 X142.600 Y104.657
;TYPE:WALL-OUTER
G1 F1380 X142.600 Y120.342 E377.72331
G1 X142.561 Y120.782 E377.74098
G1 X142.441 Y121.224 E377.75930
G1 X142.265 Y121.598 E377.77583
G1 X142.011 Y121.960 E377.79352
G1 X141.710 Y122.261 E377.81055
G1 X141.346 Y122.516 E377.82832
G1 X140.955 Y122.698 E377.84557
G1 X140.534 Y122.810 E377.86300
G1 X140.093 Y122.850 E377.88071
G1 X89.907 Y122.850 E379.88815
G1 X89.464 Y122.810 E379.90595
G1 X89.046 Y122.699 E379.92324
G1 X88.652 Y122.515 E379.94064
G1 X88.289 Y122.261 E379.95836
G1 X87.988 Y121.960 E379.97539
G1 X87.731 Y121.592 E379.99334
G1 X87.551 Y121.205 E380.01041
G1 X87.439 Y120.784 E380.02784
G1 X87.400 Y120.349 E380.04531
G1 X87.400 Y104.650 E380.67327
G1 X87.431 Y104.258 E380.68900
G1 X87.521 Y103.882 E380.70446
G1 X87.674 Y103.514 E380.72040
G1 X87.878 Y103.179 E380.73609
G1 X88.132 Y102.882 E380.75173
G1 X88.429 Y102.628 E380.76736
G1 X88.764 Y102.424 E380.78305
G1 X89.132 Y102.271 E380.79899
G1 X89.508 Y102.181 E380.81445
G1 X89.903 Y102.150 E380.83030
G1 X140.094 Y102.150 E382.83794
G1 X140.534 Y102.189 E382.85561
G1 X140.955 Y102.301 E382.87304
G1 X141.346 Y102.483 E382.89029
