;FLAVOR:UltiGCode
;TIME:1976      
;MATERIAL:2409      
;MATERIAL2:0         

;Layer count: 87
;LAYER:0
M107
G0 F6000 X86.114 Y100.135 Z0.300
G0 X87.887 Y99.111
;TYPE:SKIRT
G1 F900 X88.881 Y98.847 E0.11107
G1 X89.762 Y98.770 E0.20658
G1 X140.240 Y98.770 E5.65821
G1 X141.120 Y98.847 E5.75361
G1 X142.113 Y99.111 E5.86458
G1 X143.048 Y99.547 E5.97600
G1 X143.889 Y100.137 E6.08695
G1 X144.615 Y100.863 E6.19784
G1 X145.203 Y101.704 E6.30866
G1 X145.639 Y102.636 E6.41979
G1 X145.903 Y103.630 E6.53086
G1 X145.980 Y104.511 E6.62637
G1 X145.980 Y120.488 E8.35189
G1 X145.903 Y121.369 E8.44740
G1 X145.639 Y122.362 E8.55837
G1 X145.203 Y123.297 E8.66979
G1 X144.613 Y124.138 E8.78074
G1 X143.889 Y124.862 E8.89132
G1 X143.048 Y125.452 E9.00227
G1 X142.113 Y125.888 E9.11369
G1 X141.124 Y126.151 E9.22421
G1 X140.243 Y126.230 E9.31974
G1 X89.759 Y126.230 E14.77201
G1 X88.878 Y126.151 E14.86754
G1 X87.887 Y125.888 E14.97828
G1 X86.955 Y125.452 E15.08940
G1 X86.114 Y124.864 E15.20023
G1 X85.388 Y124.138 E15.31111
G1 X84.798 Y123.297 E15.42206
G1 X84.362 Y122.362 E15.53348
G1 X84.098 Y121.369 E15.64445
G1 X84.021 Y120.488 E15.73996
G1 X84.021 Y104.511 E17.46548
G1 X84.098 Y103.630 E17.56099
G1 X84.362 Y102.636 E17.67206
G1 X84.798 Y101.704 E17.78319
G1 X85.386 Y100.863 E17.89402
G1 X86.114 Y100.135 E18.00521
G1 X86.955 Y99.547 E18.11603
G1 X87.887 Y99.111 E18.22716
G10
G1 Z0.375
G0 F6000 X89.925 Y102.490
;TYPE:WALL-INNER
G1 Z0.300
G11
G1 F900 X140.077 Y102.490 E23.64358
G1 X140.475 Y102.525 E23.68673
G1 X140.843 Y102.623 E23.72785
G1 X141.178 Y102.779 E23.76777
G1 X141.486 Y102.995 E23.80839
G1 X141.755 Y103.264 E23.84948
G1 X141.969 Y103.571 E23.88990
G1 X142.128 Y103.910 E23.93033
G1 X142.225 Y104.275 E23.97112
G1 X142.260 Y104.674 E24.01438
G1 X142.260 Y120.325 E25.70469
G1 X142.225 Y120.724 E25.74795
G1 X142.127 Y121.092 E25.78908
G1 X141.971 Y121.427 E25.82899
G1 X141.755 Y121.735 E25.86961
G1 X141.486 Y122.004 E25.91070
G1 X141.178 Y122.220 E25.95133
G1 X140.843 Y122.376 E25.99124
G1 X140.474 Y122.474 E26.03247
G1 X140.075 Y122.510 E26.07574
G1 X89.927 Y122.510 E31.49172
G1 X89.526 Y122.474 E31.53521
G1 X89.161 Y122.377 E31.57599
G1 X88.822 Y122.218 E31.61643
G1 X88.515 Y122.004 E31.65685
G1 X88.246 Y121.735 E31.69794
G1 X88.030 Y121.427 E31.73856
G1 X87.874 Y121.092 E31.77847
G1 X87.776 Y120.724 E31.81960
G1 X87.741 Y120.325 E31.86286
G1 X87.741 Y104.674 E33.55317
G1 X87.776 Y104.275 E33.59643
G1 X87.873 Y103.910 E33.63722
G1 X88.032 Y103.571 E33.67765
G1 X88.246 Y103.264 E33.71807
G1 X88.515 Y102.995 E33.75916
G1 X88.822 Y102.781 E33.79957
G1 X89.161 Y102.622 E33.84001
G1 X89.526 Y102.525 E33.88080
G1 X89.925 Y102.490 E33.92406
G0 F6000 X89.111 Y103.910
G1 F900 X89.111 Y113.990 E35.01270
G1 X96.690 Y113.990 E35.83123
G1 X96.690 Y103.910 E36.91987
G1 X89.111 Y103.910 E37.73840
G0 F6000 X96.651 Y103.949
G0 X100.161 Y105.259
G1 F900 X100.161 Y118.839 E39.20504
G1 X113.741 Y118.839 E40.67168
G1 X113.741 Y105.259 E42.13832
G1 X100.161 Y105.259 E43.60496
G0 F6000 X113.702 Y105.298
G0 X114.098 Y112.500
G1 F900 X123.701 Y122.102 E45.07160
G1 X133.303 Y112.500 E46.53816
G1 X123.701 Y102.897 E48.00480
G1 X114.098 Y112.500 E49.47152
G0 F6000 X114.411 Y116.760
G1 F900 X114.411 Y120.340 E49.85816
G1 X117.991 Y120.340 E50.24480
G1 X117.991 Y116.760 E50.63144
G1 X114.411 Y116.760 E51.01808
G0 F6000 X114.771 Y117.120
;TYPE:WALL-OUTER
G1 F900 X114.771 Y119.980 E51.32696
G1 X117.631 Y119.980 E51.63584
G1 X117.631 Y117.120 E51.94472
G1 X114.771 Y117.120 E52.25360
G0 F6000 X114.771 Y116.840
G0 X114.450 Y116.799
G0 X113.702 Y118.800
G0 X113.381 Y118.759
G0 X113.381 Y118.479
G1 F900 X113.381 Y105.619 E53.64248
G1 X100.521 Y105.619 E55.03136
G1 X100.521 Y118.479 E56.42024
G1 X113.381 Y118.479 E57.80912
G0 F6000 X113.381 Y118.759
G0 X113.702 Y118.800
G0 X114.153 Y112.500
G0 X114.411 Y112.302
G0 X114.607 Y112.500
G1 F900 X123.701 Y121.593 E59.19801
G1 X132.794 Y112.500 E60.58683
G1 X123.701 Y103.406 E61.97573
G1 X114.607 Y112.500 E63.36470
G0 F6000 X114.411 Y112.302
G0 X113.759 Y112.359
G0 X113.702 Y118.800
G0 X100.200 Y118.800
G0 X96.330 Y113.910
G0 X96.330 Y113.630
G1 F900 X96.330 Y104.270 E64.37558
G1 X89.471 Y104.270 E65.11635
G1 X89.471 Y113.630 E66.12723
G1 X96.330 Y113.630 E66.86800
G0 F6000 X96.330 Y113.910
G0 X87.661 Y120.331
G0 X87.381 Y120.349
G1 F900 X87.381 Y104.650 E68.56350
G1 X87.420 Y104.214 E68.61077
G1 X87.533 Y103.787 E68.65848
G1 X87.719 Y103.388 E68.70602
G1 X87.970 Y103.030 E68.75324
G1 X88.281 Y102.719 E68.80074
G1 X88.639 Y102.468 E68.84796
G1 X89.038 Y102.282 E68.89551
G1 X89.465 Y102.169 E68.94321
G1 X89.906 Y102.130 E68.99102
G1 X140.096 Y102.130 E74.41154
G1 X140.536 Y102.169 E74.45925
G1 X140.963 Y102.282 E74.50695
G1 X141.363 Y102.468 E74.55459
G1 X141.720 Y102.719 E74.60173
G1 X142.031 Y103.030 E74.64923
G1 X142.282 Y103.388 E74.69645
G1 X142.468 Y103.787 E74.74399
G1 X142.581 Y104.214 E74.79169
G1 X142.620 Y104.650 E74.83897
G1 X142.620 Y120.349 E76.53446
G1 X142.581 Y120.785 E76.58174
G1 X142.468 Y121.212 E76.62944
G1 X142.282 Y121.612 E76.67708
G1 X142.031 Y121.969 E76.72422
G1 X141.720 Y122.280 E76.77172
G1 X141.363 Y122.531 E76.81885
G1 X140.963 Y122.717 E76.86649
G1 X140.536 Y122.831 E76.91422
G1 X140.096 Y122.870 E76.96193
G1 X89.906 Y122.870 E82.38245
G1 X89.465 Y122.831 E82.43026
G1 X89.038 Y122.717 E82.47799
G1 X88.639 Y122.531 E82.52554
G1 X88.281 Y122.280 E82.57276
G1 X87.970 Y121.969 E82.62026
G1 X87.719 Y121.612 E82.66739
G1 X87.533 Y121.212 E82.71503
G1 X87.420 Y120.785 E82.76274
G1 X87.381 Y120.349 E82.81001
G0 F6000 X87.848 Y120.177
;TYPE:FILL
G1 F900 X90.071 Y122.400 E83.14954
G0 F6000 X90.581 Y122.400
G1 F900 X87.848 Y119.668 E83.56689
G0 F6000 X87.848 Y119.159
G1 F900 X91.090 Y122.400 E84.06198
G0 F6000 X91.599 Y122.400
G1 F900 X87.848 Y118.650 E84.63481
G0 F6000 X87.848 Y118.141
G1 F900 X92.108 Y122.400 E85.28539
G0 F6000 X92.617 Y122.400
G1 F900 X87.848 Y117.632 E86.01371
G0 F6000 X87.848 Y117.123
G1 F900 X93.126 Y122.400 E86.81977
G0 F6000 X93.635 Y122.400
G1 F900 X87.848 Y116.613 E87.70364
G0 F6000 X87.848 Y116.104
G1 F900 X94.144 Y122.400 E88.66526
G0 F6000 X94.654 Y122.400
G1 F900 X87.848 Y115.595 E89.70470
G0 F6000 X87.848 Y115.086
G1 F900 X95.163 Y122.400 E90.82188
G0 F6000 X95.672 Y122.400
G1 F900 X87.848 Y114.577 E92.01681
G0 F6000 X87.848 Y114.068
G1 F900 X96.181 Y122.400 E93.28947
G0 F6000 X96.690 Y122.400
G1 F900 X87.848 Y113.559 E94.63988
G0 F6000 X87.848 Y113.050
G1 F900 X97.199 Y122.400 E96.06803
G0 F6000 X97.708 Y122.400
G1 F900 X89.405 Y114.097 E97.33619
G0 F6000 X89.914 Y114.097
G1 F900 X98.217 Y122.400 E98.60434
G0 F6000 X98.726 Y122.400
G1 F900 X90.423 Y114.097 E99.87250
G0 F6000 X90.932 Y114.097
G1 F900 X99.236 Y122.400 E101.14074
G0 F6000 X99.745 Y122.400
G1 F900 X91.441 Y114.097 E102.40898
G0 F6000 X91.950 Y114.097
G1 F900 X100.254 Y122.400 E103.67721
G0 F6000 X100.763 Y122.400
G1 F900 X92.459 Y114.097 E104.94545
G0 F6000 X92.968 Y114.097
G1 F900 X101.272 Y122.400 E106.21368
G0 F6000 X101.781 Y122.400
G1 F900 X93.478 Y114.097 E107.48184
G0 F6000 X93.987 Y114.097
G1 F900 X102.290 Y122.400 E108.75000
G0 F6000 X102.799 Y122.400
G1 F900 X94.496 Y114.097 E110.01816
G0 F6000 X95.005 Y114.097
G1 F900 X103.309 Y122.400 E111.28640
G0 F6000 X103.818 Y122.400
G1 F900 X100.363 Y118.946 E111.81402
G0 F6000 X100.053 Y118.636
G1 F900 X95.514 Y114.097 E112.50728
G0 F6000 X96.023 Y114.097
G1 F900 X100.053 Y118.127 E113.12281
G0 F6000 X100.053 Y117.618
G1 F900 X96.532 Y114.097 E113.66059
G0 F6000 X96.797 Y113.853
G1 F900 X100.053 Y117.108 E114.15781
G0 F6000 X100.053 Y116.599
G1 F900 X96.797 Y113.344 E114.65504
G0 F6000 X96.797 Y112.835
G1 F900 X100.053 Y116.090 E115.15227
G0 F6000 X100.053 Y115.581
G1 F900 X96.797 Y112.326 E115.64950
G0 F6000 X96.797 Y111.816
G1 F900 X100.053 Y115.072 E116.14681
G0 F6000 X100.053 Y114.563
G1 F900 X96.797 Y111.307 E116.64411
G0 F6000 X96.797 Y110.798
G1 F900 X100.053 Y114.054 E117.14142
G0 F6000 X100.053 Y113.545
G1 F900 X96.797 Y110.289 E117.63872
G0 F6000 X96.797 Y109.780
G1 F900 X100.053 Y113.035 E118.13595
G0 F6000 X100.053 Y112.526
G1 F900 X96.797 Y109.271 E118.63318
G0 F6000 X96.797 Y108.762
G1 F900 X100.053 Y112.017 E119.13041
G0 F6000 X100.053 Y111.508
G1 F900 X96.797 Y108.253 E119.62764
G0 F6000 X96.797 Y107.743
G1 F900 X100.053 Y110.999 E120.12494
G0 F6000 X100.053 Y110.490
G1 F900 X96.797 Y107.234 E120.62225
G0 F6000 X96.797 Y106.725
G1 F900 X100.053 Y109.981 E121.11956
G0 F6000 X100.053 Y109.472
G1 F900 X96.797 Y106.216 E121.61686
G0 F6000 X96.797 Y105.707
G1 F900 X100.053 Y108.963 E122.11417
G0 F6000 X100.053 Y108.453
G1 F900 X96.797 Y105.198 E122.61140
G0 F6000 X96.797 Y104.689
G1 F900 X100.053 Y107.944 E123.10862
G0 F6000 X100.053 Y107.435
G1 F900 X96.797 Y104.180 E123.60585
G0 F6000 X96.418 Y103.801
G1 F900 X95.215 Y102.597 E123.78967
G0 F6000 X94.706 Y102.597
G1 F900 X95.909 Y103.801 E123.97349
G0 F6000 X95.400 Y103.801
G1 F900 X94.197 Y102.597 E124.15730
G0 F6000 X93.688 Y102.597
G1 F900 X94.891 Y103.801 E124.34112
G0 F6000 X94.382 Y103.801
G1 F900 X93.178 Y102.597 E124.52501
G0 F6000 X92.669 Y102.597
G1 F900 X93.873 Y103.801 E124.70891
G0 F6000 X93.364 Y103.801
G1 F900 X92.160 Y102.597 E124.89280
G0 F6000 X91.651 Y102.597
G1 F900 X92.855 Y103.801 E125.07669
G0 F6000 X92.346 Y103.801
G1 F900 X91.142 Y102.597 E125.26059
G0 F6000 X90.633 Y102.597
G1 F900 X91.836 Y103.801 E125.44440
G0 F6000 X91.327 Y103.801
G1 F900 X90.124 Y102.597 E125.62822
G0 F6000 X89.640 Y102.623
G1 F900 X90.818 Y103.801 E125.80814
G0 F6000 X89.224 Y102.716
G1 F900 X90.309 Y103.801 E125.97386
G0 F6000 X88.875 Y102.876
G1 F900 X89.800 Y103.801 E126.11514
G0 F6000 X88.576 Y103.086
G1 F900 X89.291 Y103.801 E126.22434
G0 F6000 X88.323 Y103.342
G1 F900 X89.003 Y104.022 E126.32820
G0 F6000 X88.116 Y103.644
G1 F900 X89.003 Y104.531 E126.46368
G0 F6000 X87.960 Y103.997
G1 F900 X89.003 Y105.040 E126.62298
G0 F6000 X87.871 Y104.417
G1 F900 X89.003 Y105.549 E126.79588
G0 F6000 X87.848 Y104.904
G1 F900 X89.003 Y106.058 E126.97221
G0 F6000 X87.848 Y105.413
G1 F900 X89.003 Y106.568 E127.14862
G0 F6000 X87.848 Y105.922
G1 F900 X89.003 Y107.077 E127.32503
G0 F6000 X87.848 Y106.431
G1 F900 X89.003 Y107.586 E127.50144
G0 F6000 X87.848 Y106.940
G1 F900 X89.003 Y108.095 E127.67785
G0 F6000 X87.848 Y107.449
G1 F900 X89.003 Y108.604 E127.85426
G0 F6000 X87.848 Y107.958
G1 F900 X89.003 Y109.113 E128.03066
G0 F6000 X87.848 Y108.468
G1 F900 X89.003 Y109.622 E128.20700
G0 F6000 X87.848 Y108.977
G1 F900 X89.003 Y110.131 E128.38333
G0 F6000 X87.848 Y109.486
G1 F900 X89.003 Y110.640 E128.55966
G0 F6000 X87.848 Y109.995
G1 F900 X89.003 Y111.150 E128.73607
G0 F6000 X87.848 Y110.504
G1 F900 X89.003 Y111.659 E128.91248
G0 F6000 X87.848 Y111.013
G1 F900 X89.003 Y112.168 E129.08889
G0 F6000 X87.848 Y111.522
G1 F900 X89.003 Y112.677 E129.26530
G0 F6000 X87.848 Y112.031
G1 F900 X89.003 Y113.186 E129.44171
G0 F6000 X87.848 Y112.540
G1 F900 X89.003 Y113.695 E129.61812
G0 F6000 X87.889 Y120.727
G1 F900 X89.522 Y122.360 E129.86753
G0 F6000 X100.873 Y118.946
G1 F900 X104.327 Y122.400 E130.39508
G0 F6000 X104.836 Y122.400
G1 F900 X101.382 Y118.946 E130.92263
G0 F6000 X101.891 Y118.946
G1 F900 X105.345 Y122.400 E131.45017
G0 F6000 X105.854 Y122.400
G1 F900 X102.400 Y118.946 E131.97772
G0 F6000 X102.909 Y118.946
G1 F900 X106.363 Y122.400 E132.50527
G0 F6000 X106.872 Y122.400
G1 F900 X103.418 Y118.946 E133.03281
G0 F6000 X103.927 Y118.946
G1 F900 X107.381 Y122.400 E133.56036
G0 F6000 X107.891 Y122.400
G1 F900 X104.436 Y118.946 E134.08798
G0 F6000 X104.945 Y118.946
G1 F900 X108.400 Y122.400 E134.61561
G0 F6000 X108.909 Y122.400
G1 F900 X105.455 Y118.946 E135.14315
G0 F6000 X105.964 Y118.946
G1 F900 X109.418 Y122.400 E135.67070
G0 F6000 X109.927 Y122.400
G1 F900 X106.473 Y118.946 E136.19825
G0 F6000 X106.982 Y118.946
G1 F900 X110.436 Y122.400 E136.72580
G0 F6000 X110.945 Y122.400
G1 F900 X107.491 Y118.946 E137.25334
G0 F6000 X108.000 Y118.946
G1 F900 X111.454 Y122.400 E137.78089
G0 F6000 X111.963 Y122.400
G1 F900 X108.509 Y118.946 E138.30844
G0 F6000 X109.018 Y118.946
G1 F900 X112.473 Y122.400 E138.83606
G0 F6000 X112.982 Y122.400
G1 F900 X109.528 Y118.946 E139.36361
G0 F6000 X110.037 Y118.946
G1 F900 X113.491 Y122.400 E139.89115
G0 F6000 X114.000 Y122.400
G1 F900 X110.546 Y118.946 E140.41870
G0 F6000 X111.055 Y118.946
G1 F900 X114.509 Y122.400 E140.94625
G0 F6000 X115.018 Y122.400
G1 F900 X111.564 Y118.946 E141.47379
G0 F6000 X112.073 Y118.946
G1 F900 X115.527 Y122.400 E142.00134
G0 F6000 X116.036 Y122.400
G1 F900 X112.582 Y118.946 E142.52889
G0 F6000 X113.091 Y118.946
G1 F900 X114.303 Y120.157 E142.71393
G0 F6000 X114.593 Y120.447
G1 F900 X116.546 Y122.400 E143.01222
G0 F6000 X117.055 Y122.400
G1 F900 X115.102 Y120.447 E143.31051
G0 F6000 X115.611 Y120.447
G1 F900 X117.564 Y122.400 E143.60880
G0 F6000 X118.073 Y122.400
G1 F900 X116.120 Y120.447 E143.90709
G0 F6000 X116.629 Y120.447
G1 F900 X118.582 Y122.400 E144.20538
G0 F6000 X119.091 Y122.400
G1 F900 X117.138 Y120.447 E144.50368
G0 F6000 X117.647 Y120.447
G1 F900 X119.600 Y122.400 E144.80197
G0 F6000 X120.109 Y122.400
G1 F900 X118.098 Y120.389 E145.10912
G0 F6000 X118.098 Y119.880
G1 F900 X120.618 Y122.400 E145.49401
G0 F6000 X121.128 Y122.400
G1 F900 X118.098 Y119.371 E145.95672
G0 F6000 X118.098 Y118.862
G1 F900 X121.637 Y122.400 E146.49717
G0 F6000 X122.146 Y122.400
G1 F900 X118.098 Y118.352 E147.11545
G0 F6000 X118.098 Y117.843
G1 F900 X122.655 Y122.400 E147.81146
G0 F6000 X123.164 Y122.400
G1 F900 X118.098 Y117.334 E148.58522
G0 F6000 X118.098 Y116.825
G1 F900 X123.673 Y122.400 E149.43671
G0 F6000 X123.868 Y122.086
G1 F900 X124.183 Y122.401 E149.48482
G0 F6000 X124.123 Y121.832
G1 F900 X124.692 Y122.401 E149.57173
G0 F6000 X124.377 Y121.577
G1 F900 X125.201 Y122.401 E149.69758
G0 F6000 X124.632 Y121.323
G1 F900 X125.710 Y122.401 E149.86223
G0 F6000 X124.887 Y121.068
G1 F900 X126.219 Y122.401 E150.06575
G0 F6000 X125.141 Y120.814
G1 F900 X126.729 Y122.401 E150.30822
G0 F6000 X127.238 Y122.401
G1 F900 X125.396 Y120.559 E150.58956
G0 F6000 X125.650 Y120.305
G1 F900 X127.747 Y122.401 E150.90977
G0 F6000 X128.256 Y122.401
G1 F900 X125.905 Y120.050 E151.26885
G0 F6000 X126.159 Y119.795
G1 F900 X128.765 Y122.401 E151.66687
G0 F6000 X129.274 Y122.401
G1 F900 X126.414 Y119.541 E152.10370
G0 F6000 X126.668 Y119.286
G1 F900 X129.783 Y122.401 E152.57947
G0 F6000 X130.292 Y122.401
G1 F900 X126.923 Y119.032 E153.09403
G0 F6000 X127.178 Y118.777
G1 F900 X130.802 Y122.401 E153.64754
G0 F6000 X131.311 Y122.401
G1 F900 X127.432 Y118.523 E154.23993
G0 F6000 X127.687 Y118.268
G1 F900 X131.820 Y122.401 E154.87118
G0 F6000 X132.329 Y122.401
G1 F900 X127.941 Y118.014 E155.54130
G0 F6000 X128.196 Y117.759
G1 F900 X132.838 Y122.401 E156.25030
G0 F6000 X133.347 Y122.401
G1 F900 X128.450 Y117.504 E156.99824
G0 F6000 X128.705 Y117.250
G1 F900 X133.856 Y122.401 E157.78498
G0 F6000 X134.365 Y122.401
G1 F900 X128.960 Y116.995 E158.61059
G0 F6000 X129.214 Y116.741
G1 F900 X134.874 Y122.401 E159.47507
G0 F6000 X135.384 Y122.401
G1 F900 X129.469 Y116.486 E160.37850
G0 F6000 X129.723 Y116.232
G1 F900 X135.893 Y122.401 E161.32080
G0 F6000 X136.402 Y122.401
G1 F900 X129.978 Y115.977 E162.30197
G0 F6000 X130.232 Y115.722
G1 F900 X136.911 Y122.401 E163.32209
G0 F6000 X137.420 Y122.401
G1 F900 X130.487 Y115.468 E164.38100
G0 F6000 X130.741 Y115.213
G1 F900 X137.929 Y122.401 E165.47886
G0 F6000 X138.438 Y122.401
G1 F900 X130.996 Y114.959 E166.61551
G0 F6000 X131.251 Y114.704
G1 F900 X138.947 Y122.401 E167.79104
G0 F6000 X139.457 Y122.401
G1 F900 X131.505 Y114.450 E169.00551
